!!!OTL: 1c. Die ſchoene Dorothea.
!!!ARE: Europa, Mitteleuropa, Deutschland, Hohen - Saten, Oderberg
!!!ODT: 1853
!!!SCT: E0001F
!!!TXL: @@DE
!!!YEM: Copyright 1995, estate of Helmut Schaffrath.
**kern	**text
*ICvox	*
*M2/4	*
*k[f#]	*
*G:	*
!LO:TX:a:t=Mäßig.	!
!LO:TX:a:t=Gegend von Oderberg (Hohen-Saten). 1853.	!
{8d	Es
=1	=1
8g	war
8g	ein
8a	wil-
16a/L	-der
16ccJ	.
=2	=2
8b/	Waſ-
16b/L	-ſer-
16aJ	.
8g}	-mann
{16a	[von
16b/	dem
=3	=3
8cc	Berg
8a	bis
8g	ü-
16f#	-ber
16a	die
=4	=4
(8e	See],
8dJ)	.
8r}	.
{8d	der
=5	=5
8g	wollte
8b/	Königs
8dd	Tochter
8g	aus
=6	=6
8f#	Enge-
8a	-land
8cc}	hab'n,
{8dd	die
=7	=7
8b	ſchö-
8b	-ne
8cc	An-
8f#	-na-
=8	=8
4g	-le.
8r}	.
==	==
!!!AGN: Sage, Maerchen -, Zauber - Lied, Ballade ?
!!!ONB: ESAC (Essen Associative Code) Database: ERK1
!!!AMT: simple duple
!!!AIN: vox
!!!EED: Helmut Schaffrath
!!!EEV: 1.0
!!!GTL: Nachtklaenge der Goettersage (Zaubermaeren)
!!!URL-scan: https://rosdok.uni-rostock.de/mcrviewer/recordIdentifier/rosdok_ppn745146120/iview2/phys_0068.iview2?x=-4.404412318551749&y=237.01380088817677&scale=0.6456904138606624&rotation=0&layout=singlePageLayout&logicalDiv=log_0009
!!!ENC: Anna Maria Matuszewska
!!!EEV: 2024/21/11
*-	*-
